svgs/sharp-regular/user-nurse-hair.svg

<svg xmlns="http://www.w3.org/2000/svg" viewBox="0 0 448 512"><!--! Font Awesome Pro 6.6.0 by @fontawesome - https://fontawesome.com License - https://fontawesome.com/license (Commercial License) Copyright 2024 Fonticons, Inc. --><path d="M96 48L224 0 352 48l0 80-.3 0c.2 2.6 .3 5.3 .3 8l0 40c0 70.7-57.3 128-128 128s-128-57.3-128-128c0 0 0 0 0 0l0-40c0-2.7 .1-5.4 .3-8l-.3 0 0-80zm48 128c0 44.2 35.8 80 80 80s80-35.8 80-80l0-16-48 0-16-16-32 32-64 0zM208 40l0 24-24 0 0 32 24 0 0 24 32 0 0-24 24 0 0-32-24 0 0-24-32 0zM189 456.9L105.4 368l-6.8 0-32 96 129.1 0-6.7-7.1zM381.4 464l-32-96-6.8 0L259 456.9l-6.7 7.1 129.1 0zM321.9 320l62.1 0 48 144 16 48-50.6 0L50.6 512 0 512l16-48L64 320l62.1 0L191 389l33 35 33-35 64.9-69z"/></svg>

<svg xmlns="http://www.w3.org/2000/svg" viewBox="0 0 448 512"><!--! Font Awesome Pro 6.4.2 by @fontawesome - https://fontawesome.com License - https://fontawesome.com/license (Commercial License) Copyright 2023 Fonticons, Inc. --><path d="M96 48L224 0 352 48v80h-.3c.2 2.6 .3 5.3 .3 8v40c0 70.7-57.3 128-128 128s-128-57.3-128-128v0V136c0-2.7 .1-5.4 .3-8H96V48zm48 128c0 44.2 35.8 80 80 80s80-35.8 80-80V160H256l-16-16-32 32H144zM208 40V64H184V96h24v24h32V96h24V64H240V40H208zM189 456.9L105.4 368H98.6l-32 96H195.7l-6.7-7.1zM381.4 464l-32-96h-6.8L259 456.9l-6.7 7.1H381.4zM321.9 320H384l48 144 16 48H397.4 50.6 0l16-48L64 320h62.1L191 389l33 35 33-35 64.9-69z"/></svg>
